X:10
T:Home Ruler, The
T:Daniel O'Connell, The Home Ruler
R:hornpipe
C:Frank McCollum of Ballycastle
H:Frank McCollum was a great fiddler and composer from Ballycastle
D:Noel Hill & Tony Linnane
Z:id:hn-hornpipe-10
M:C|
K:D
FE|D2FA D2FA|dfed B2dB|~A3B AFDE|(3FED ED B,DA,B,|
D2FA D2FA|dfed B2dB|~A3B AF (3EFG|F2D2 D2:|
|:dB|Addc d2df|afbf afed|efed BAde|fded BdAB|
Addc d2df|afbf afed|efed BAdB|AFEF D2:|
<end>
<start>
